X:1
T:Oxford (Coward), 10.11.10.11
T:Oxford (Coward), 10.11.10.11
T:Henry Coward, 1889
T:Public Domain Courtesy of the Cyber Hymnal™
C:Henry Coward, 1889
Z:Public Domain
Z:Courtesy of the Cyber Hymnal™
%%score ( 1 2 ) ( 3 4 )
L:1/8
M:3/4
K:D
V:1 treble 
V:2 treble 
V:3 bass 
V:4 bass 
V:1
 [DA]2 | [DA]2 [DE]2 [DF]2 | [DG]4 [DG]2 | [CB]2 [DA]2 [EG]2 | [DF]4 [DF]2 | [DA]2 [DG]2 [EF]2 | %6
 [Dd]2 [Ec]2 [FB]2 | [^EA]3 [EB] [C^G]2 | [CF]4 [DA]2 | [CA]2 [CE]2 [CF]2 | [DG]4 [DB]2 | %11
 [DB]2 [Ec]3 [DB] | [CA]4 [Ac]2 | [Gc]2 [Gd]2 [Ge]2 | [Fe]2 [Fd]2 [DF]2 | [DF]2 [DG]2 [CE]2 | D4 |] %17
V:2
 x2 | x6 | x6 | x6 | x6 | x6 | x6 | x6 | x6 | x6 | x6 | x6 | x6 | x6 | x6 | x6 | D4 |] %17
V:3
 [D,F,]2 | [D,F,]2 [G,B,]2 [F,A,]2 | [E,B,]4 [E,B,]2 | [A,,A,]2 [B,,A,]2 [C,A,]2 | %4
 [D,A,]4 [D,A,]2 | [D,B,]2 [D,B,]2 [C,^A,]2 | [B,,B,]2 [C,^A,]2 [E,B,]2 | [C,C]3 [C,C] [C,B,]2 | %8
 [F,A,]4 [D,F,]2 | [A,,E,]2 [A,,A,]2 [A,,A,]2 | [B,,G,]4 G,2 | [E,^G,]2 [E,G,]3 [E,G,] | %12
 [A,,A,]4 [A,E]2 | [A,E]2 [A,D]2 [A,C]2 | [B,D]2 [B,D]2 [B,,B,]2 | [G,,B,]2 [G,,B,]2 [A,,G,]2 | %16
 [D,F,]4 |] %17
V:4
 x2 | x6 | x6 | x6 | x6 | x6 | x6 | x6 | x6 | x6 | x4 G,2 | x6 | x6 | x6 | x6 | x6 | x4 |] %17

